img/star.svg

<svg width="34" height="33" viewBox="0 0 34 33" fill="none" xmlns="http://www.w3.org/2000/svg">
<g filter="url(#filter0_d_521_3143)">
<path d="M17 0L23.1953 8.47296L33.168 11.7467L27.0241 20.257L26.9923 30.7533L17 27.54L7.00765 30.7533L6.97586 20.257L0.832039 11.7467L10.8047 8.47296L17 0Z" fill="#F8F6D0"/>
</g>
<defs>
<filter id="filter0_d_521_3143" x="0.832039" y="0" width="32.3359" height="32.7533" filterUnits="userSpaceOnUse" color-interpolation-filters="sRGB">
<feFlood flood-opacity="0" result="BackgroundImageFix"/>
<feColorMatrix in="SourceAlpha" type="matrix" values="0 0 0 0 0 0 0 0 0 0 0 0 0 0 0 0 0 0 127 0" result="hardAlpha"/>
<feOffset dy="2"/>
<feComposite in2="hardAlpha" operator="out"/>
<feColorMatrix type="matrix" values="0 0 0 0 0 0 0 0 0 0 0 0 0 0 0 0 0 0 0.25 0"/>
<feBlend mode="normal" in2="BackgroundImageFix" result="effect1_dropShadow_521_3143"/>
<feBlend mode="normal" in="SourceGraphic" in2="effect1_dropShadow_521_3143" result="shape"/>
</filter>
</defs>
</svg>

<svg width="34" height="33" fill="none" xmlns="http://www.w3.org/2000/svg"><g filter="url(#a)"><path d="m17 0 6.195 8.473 9.973 3.274-6.144 8.51-.032 10.496L17 27.54l-9.992 3.213-.032-10.496-6.144-8.51 9.973-3.274L17 0Z" fill="#F8F6D0"/></g><defs><filter id="a" x=".832" y="0" width="32.336" height="32.753" filterUnits="userSpaceOnUse" color-interpolation-filters="sRGB"><feFlood flood-opacity="0" result="BackgroundImageFix"/><feColorMatrix in="SourceAlpha" values="0 0 0 0 0 0 0 0 0 0 0 0 0 0 0 0 0 0 127 0" result="hardAlpha"/><feOffset dy="2"/><feComposite in2="hardAlpha" operator="out"/><feColorMatrix values="0 0 0 0 0 0 0 0 0 0 0 0 0 0 0 0 0 0 0.25 0"/><feBlend in2="BackgroundImageFix" result="effect1_dropShadow_521_3143"/><feBlend in="SourceGraphic" in2="effect1_dropShadow_521_3143" result="shape"/></filter></defs></svg>
